X:26
T:Applebutter
C:Bela Fleck
N:Transcribed by Tristan Scroggins
R:bluegrass
L:1/8
Q:1/4=200
M:4/4
K:C
ec G2 GA c2 |: d^d ed ec AG | ^FA c_B =BG =F^D | EB _B^G AF DC 
 B,C DB, A,G, G,2 | d^d ed ec AG | ^FA c_B =BG =F^D | EB _B^G AF DC | B,C DC C4 :|
|: A,^C EC A,C EG | FA, EA, DE FA | G^F GA Bc df | ed ee ee dB |
 ^cd ec Ac eg | fd e^c de (3fe^d | ec AG ^FA G=F | DC B,D C4 :| 

